**kern	**kern	**dynam
*part1	*part1	*part1
*staff2	*staff1	*
*I"Piano	*	*
*clefF4	*clefG2	*
*k[]	*k[]	*
=1	=1	=1
2.AA-X 2.A-X	2.c 2.e	.
=	=	=
2FF 2F	2A-X 2c 2d	<
4FF 4F	4A- 4c 4d	.
=	=	=
2FF#X 2F#X	2An 2c 2d	[ >
4FF#	4A 4c 4d	]
=	=	=
2.GG	2.G 2.c 2.e-X	fz
=	=	=
*	*^	*
2.GG	2G 2d	4c	.
!	!LO:TX:b:Bi:t=riten.	!	!
.	.	2B	.
!	!LO:TX:b:i:t=dim.	!	!
.	4Fn 4d#X	.	.
*	*v	*v	*
=	=	=
!	!LO:TX:a:Bi:t=a tempo.	!
4CC	4E 4G 4c 4en	pp
4GG	4E 4G 4c 4e	.
4C	4E 4G 4c 4e	.
=	=	=
2G	4c 4d 4f	.
.	4c 4d 4f	.
4GG	4B 4d 4f	.
=	=	=
*-	*-	*-
!!!system-decoration: {(s1,s2)}
